; generated by PrusaSlicer 2.1.1+win64 on 2020-01-25 at 06:14:09 UTC

; 

; external perimeters extrusion width = 0.45mm
; perimeters extrusion width = 0.45mm
; infill extrusion width = 0.45mm
; solid infill extrusion width = 0.45mm
; top infill extrusion width = 0.40mm
; first layer extrusion width = 0.42mm

M73 P0 R22
M73 Q0 S22
M201 X1000 Y1000 Z1000 E5000 ; sets maximum accelerations, mm/sec^2
M203 X200 Y200 Z12 E120 ; sets maximum feedrates, mm/sec
M204 P1250 R1250 T1250 ; sets acceleration (P, T) and retract acceleration (R), mm/sec^2
M205 X8.00 Y8.00 Z0.40 E1.50 ; sets the jerk limits, mm/sec
M205 S0 T0 ; sets the minimum extruding and travel feed rate, mm/sec
M107
M862.3 P "MK3S" ; printer model check
M862.1 P0.4 ; nozzle diameter check
M115 U3.8.1 ; tell printer latest fw version
G90 ; use absolute coordinates
M83 ; extruder relative mode
M104 S215 ; set extruder temp
M140 S60 ; set bed temp
M190 S60 ; wait for bed temp
M109 S215 ; wait for extruder temp
G28 W ; home all without mesh bed level
G80 ; mesh bed leveling
G1 Y-3.0 F1000.0 ; go outside print area
G92 E0.0
G1 X60.0 E9.0 F1000.0 ; intro line
M73 Q0 S22
M73 P0 R22
G1 X100.0 E12.5 F1000.0 ; intro line
G92 E0.0
M221 S95
G21 ; set units to millimeters
G90 ; use absolute coordinates
M83 ; use relative distances for extrusion
M900 K30 ; Filament gcode
;BEFORE_LAYER_CHANGE
G92 E0.0
;0.2


G1 E-0.80000 F2100.00000
G1 Z0.600 F10800.000
;AFTER_LAYER_CHANGE
;0.2
G1 X108.697 Y91.800
G1 Z0.200
G1 E0.80000 F2100.00000
M204 S1000
G1 F1200
G1 X110.131 Y90.203 E0.06732
G1 X111.670 Y88.802 E0.06523
G1 X113.368 Y87.543 E0.06627
G1 X115.180 Y86.463 E0.06616
G1 X117.095 Y85.569 E0.06627
G1 X119.091 Y84.872 E0.06627
G1 X121.146 Y84.379 E0.06627
G1 X123.241 Y84.096 E0.06627
G1 X125.321 Y84.024 E0.06524
G1 X127.459 Y84.166 E0.06719
G1 X129.511 Y84.512 E0.06524
G1 X130.947 Y84.882 E0.04650
G1 X132.941 Y85.583 E0.06627
G1 X134.825 Y86.464 E0.06523
G1 X136.641 Y87.547 E0.06627
G1 X138.335 Y88.804 E0.06616
G1 X139.897 Y90.228 E0.06627
G1 X141.308 Y91.802 E0.06627
G1 X142.553 Y93.510 E0.06627
G1 X143.620 Y95.335 E0.06627
G1 X144.486 Y97.227 E0.06524
G1 X145.178 Y99.255 E0.06719
G1 X145.647 Y101.282 E0.06524
G1 X145.858 Y102.750 E0.04650
G1 X145.979 Y104.860 E0.06627
G1 X145.890 Y106.939 E0.06523
G1 X145.589 Y109.031 E0.06627
G1 X145.079 Y111.079 E0.06616
G1 X144.366 Y113.068 E0.06627
G1 X143.456 Y114.976 E0.06627
G1 X142.358 Y116.783 E0.06627
G1 X141.084 Y118.469 E0.06627
G1 X139.671 Y119.996 E0.06524
G1 X138.064 Y121.415 E0.06719
G1 X136.374 Y122.628 E0.06524
G1 X134.542 Y123.683 E0.06627
G1 X133.198 Y124.310 E0.04650
G1 X131.246 Y125.027 E0.06523
G1 X129.199 Y125.554 E0.06627
G1 X127.113 Y125.872 E0.06616
G1 X124.983 Y125.978 E0.06685
G1 X122.891 Y125.872 E0.06570
G1 X120.801 Y125.553 E0.06627
G1 X118.754 Y125.026 E0.06627
G1 X116.770 Y124.296 E0.06627
G1 X114.871 Y123.370 E0.06627
G1 X113.073 Y122.257 E0.06627
G1 X111.400 Y120.972 E0.06616
G1 X109.885 Y119.545 E0.06524
G1 X108.498 Y117.950 E0.06627
G1 X107.624 Y116.752 E0.04649
G1 X106.546 Y114.973 E0.06523
G1 X105.625 Y113.038 E0.06719
G1 X104.922 Y111.076 E0.06536
G1 X104.413 Y109.028 E0.06616
G1 X104.113 Y106.936 E0.06627
G1 X104.024 Y104.824 E0.06627
G1 X104.148 Y102.714 E0.06627
G1 X104.484 Y100.627 E0.06627
G1 X105.027 Y98.588 E0.06616
G1 X105.761 Y96.641 E0.06524
G1 X106.700 Y94.747 E0.06627
G1 X107.478 Y93.468 E0.04695
G1 X108.661 Y91.848 E0.06290
G1 F8640
G1 X110.131 Y90.203 E-0.50953
G1 X110.934 Y89.473 E-0.25047
G1 E-0.04000 F2100.00000
G1 Z0.800 F10800.000
G1 X111.257 Y93.870
G1 Z0.200
G1 E0.80000 F2100.00000
G1 F1200
G1 X111.632 Y93.422 E0.01832
G1 X112.447 Y92.544 E0.03757
G1 X112.865 Y92.136 E0.01832
G1 X113.764 Y91.343 E0.03757
G1 X114.698 Y90.625 E0.03695
G1 X115.695 Y89.961 E0.03757
G1 X116.197 Y89.662 E0.01832
G1 X117.254 Y89.102 E0.03749
G1 X117.785 Y88.854 E0.01840
G1 X118.895 Y88.402 E0.03756
G1 X119.447 Y88.209 E0.01832
G1 X120.596 Y87.872 E0.03755
G1 X121.192 Y87.730 E0.01920
G1 X122.342 Y87.516 E0.03670
G1 X122.921 Y87.437 E0.01833
G1 X124.110 Y87.337 E0.03740
G1 X125.326 Y87.318 E0.03813
G1 X126.490 Y87.377 E0.03654
G1 X127.660 Y87.516 E0.03695
G1 X128.838 Y87.736 E0.03755
G1 X129.433 Y87.879 E0.01920
G1 X130.551 Y88.208 E0.03655
G1 X131.671 Y88.620 E0.03741
G1 X132.749 Y89.102 E0.03703
G1 X133.805 Y89.661 E0.03747
G1 X134.330 Y89.976 E0.01920
G1 X135.300 Y90.623 E0.03655
G1 X136.246 Y91.350 E0.03741
G1 X137.130 Y92.129 E0.03695
G1 X137.974 Y92.980 E0.03757
G1 X138.364 Y93.415 E0.01832
G1 X139.115 Y94.342 E0.03741
G1 X139.801 Y95.318 E0.03741
G1 X140.113 Y95.812 E0.01832
G1 X140.700 Y96.856 E0.03757
G1 X140.961 Y97.379 E0.01831
G1 X141.448 Y98.499 E0.03828
G1 X141.841 Y99.596 E0.03654
G1 X142.012 Y100.160 E0.01847
G1 X142.170 Y100.756 E0.01935
G1 X142.413 Y101.901 E0.03670
G1 X142.506 Y102.478 E0.01833
G1 X142.637 Y103.669 E0.03755
G1 X142.672 Y104.280 E0.01920
G1 X142.681 Y105.446 E0.03655
G1 X142.611 Y106.637 E0.03741
G1 X142.547 Y107.222 E0.01848
G1 X142.463 Y107.806 E0.01848
G1 X142.234 Y108.977 E0.03741
G1 X141.927 Y110.130 E0.03741
G1 X141.537 Y111.271 E0.03781
G1 X141.087 Y112.351 E0.03669
G1 X140.822 Y112.903 E0.01920
G1 X140.268 Y113.928 E0.03655
G1 X139.631 Y114.937 E0.03741
G1 X138.919 Y115.911 E0.03781
G1 X138.168 Y116.808 E0.03670
G1 X137.770 Y117.237 E0.01833
G1 X136.916 Y118.070 E0.03741
G1 X136.008 Y118.843 E0.03741
G1 X135.061 Y119.546 E0.03695
G1 X134.058 Y120.191 E0.03741
G1 X133.013 Y120.767 E0.03741
G1 X131.945 Y121.265 E0.03695
G1 X130.832 Y121.696 E0.03741
G1 X129.698 Y122.050 E0.03726
G1 X128.538 Y122.328 E0.03741
G1 X127.963 Y122.436 E0.01832
G1 X126.776 Y122.596 E0.03757
G1 X126.194 Y122.645 E0.01832
G1 X124.996 Y122.686 E0.03757
G1 X124.412 Y122.676 E0.01832
G1 X123.217 Y122.595 E0.03757
G1 X122.049 Y122.437 E0.03695
G1 X120.875 Y122.197 E0.03757
G1 X120.309 Y122.052 E0.01832
G1 X119.170 Y121.696 E0.03741
G1 X118.058 Y121.265 E0.03741
G1 X116.990 Y120.767 E0.03695
G1 X115.941 Y120.188 E0.03755
G1 X115.421 Y119.865 E0.01920
G1 X114.458 Y119.199 E0.03670
G1 X113.995 Y118.843 E0.01833
G1 X113.087 Y118.070 E0.03741
G1 X112.233 Y117.237 E0.03741
G1 X111.832 Y116.805 E0.01848
G1 X111.446 Y116.359 E0.01848
G1 X110.711 Y115.419 E0.03741
G1 X110.041 Y114.432 E0.03741
G1 X109.737 Y113.933 E0.01832
G1 X109.168 Y112.879 E0.03757
G1 X108.916 Y112.351 E0.01832
G1 X108.455 Y111.245 E0.03757
G1 X108.256 Y110.691 E0.01846
G1 X108.069 Y110.103 E0.01935
G1 X107.769 Y108.977 E0.03654
G1 X107.537 Y107.783 E0.03813
G1 X107.391 Y106.627 E0.03654
G1 X107.322 Y105.451 E0.03695
G1 X107.332 Y104.253 E0.03755
G1 X107.369 Y103.642 E0.01920
G1 X107.496 Y102.483 E0.03655
G1 X107.705 Y101.308 E0.03741
G1 X107.837 Y100.739 E0.01832
G1 X108.165 Y99.587 E0.03757
G1 X108.353 Y99.034 E0.01831
G1 X108.804 Y97.899 E0.03828
G1 X109.307 Y96.848 E0.03654
G1 X109.585 Y96.334 E0.01833
G1 X110.207 Y95.310 E0.03757
G1 X110.535 Y94.826 E0.01832
G1 X111.221 Y93.918 E0.03568
G1 X110.920 Y93.691 F10800.000
G1 F1200
G1 X111.349 Y93.173 E0.02109
G1 X112.177 Y92.280 E0.03816
G1 X112.609 Y91.859 E0.01892
G1 X113.522 Y91.054 E0.03816
G1 X114.481 Y90.317 E0.03794
G1 X115.494 Y89.642 E0.03816
G1 X116.012 Y89.333 E0.01892
G1 X117.086 Y88.764 E0.03808
G1 X117.635 Y88.508 E0.01900
G1 X118.762 Y88.049 E0.03816
G1 X119.331 Y87.850 E0.01892
G1 X120.499 Y87.507 E0.03816
G1 X121.113 Y87.361 E0.01979
G1 X122.282 Y87.143 E0.03729
G1 X122.880 Y87.062 E0.01892
G1 X124.091 Y86.960 E0.03810
G1 X125.333 Y86.941 E0.03893
G1 X126.519 Y87.001 E0.03723
G1 X127.720 Y87.143 E0.03794
G1 X128.917 Y87.367 E0.03816
G1 X129.530 Y87.515 E0.01979
G1 X130.669 Y87.850 E0.03723
G1 X131.810 Y88.270 E0.03811
G1 X132.917 Y88.764 E0.03802
G1 X133.990 Y89.333 E0.03808
G1 X134.532 Y89.657 E0.01979
G1 X135.520 Y90.316 E0.03723
G1 X136.484 Y91.057 E0.03811
G1 X137.391 Y91.857 E0.03794
G1 X138.248 Y92.721 E0.03816
G1 X138.651 Y93.170 E0.01892
G1 X139.416 Y94.115 E0.03811
G1 X140.115 Y95.109 E0.03811
G1 X140.437 Y95.619 E0.01892
G1 X141.034 Y96.680 E0.03816
G1 X141.303 Y97.220 E0.01891
G1 X141.799 Y98.360 E0.03898
G1 X142.199 Y99.478 E0.03723
G1 X142.374 Y100.057 E0.01897
G1 X142.537 Y100.669 E0.01985
G1 X142.784 Y101.832 E0.03729
G1 X142.880 Y102.428 E0.01892
G1 X143.013 Y103.637 E0.03816
G1 X143.049 Y104.268 E0.01979
G1 X143.058 Y105.455 E0.03723
G1 X142.987 Y106.668 E0.03811
G1 X142.921 Y107.270 E0.01897
G1 X142.835 Y107.869 E0.01897
G1 X142.601 Y109.062 E0.03811
G1 X142.289 Y110.236 E0.03811
G1 X141.889 Y111.407 E0.03881
G1 X141.431 Y112.505 E0.03728
G1 X141.158 Y113.074 E0.01980
G1 X140.593 Y114.119 E0.03723
G1 X139.945 Y115.147 E0.03811
G1 X139.214 Y116.146 E0.03881
G1 X138.450 Y117.057 E0.03729
G1 X138.040 Y117.500 E0.01892
G1 X137.170 Y118.348 E0.03811
G1 X136.245 Y119.137 E0.03811
G1 X135.273 Y119.858 E0.03794
G1 X134.251 Y120.515 E0.03811
G1 X133.187 Y121.102 E0.03811
G1 X132.090 Y121.614 E0.03794
G1 X130.957 Y122.053 E0.03811
G1 X129.798 Y122.414 E0.03805
G1 X128.616 Y122.697 E0.03811
G1 X128.023 Y122.808 E0.01892
G1 X126.817 Y122.971 E0.03816
G1 X126.216 Y123.022 E0.01892
G1 X125.000 Y123.063 E0.03816
G1 X124.396 Y123.053 E0.01892
G1 X123.182 Y122.971 E0.03816
G1 X121.983 Y122.809 E0.03794
G1 X120.790 Y122.565 E0.03816
G1 X120.206 Y122.415 E0.01892
G1 X119.046 Y122.053 E0.03811
G1 X117.913 Y121.614 E0.03811
G1 X116.816 Y121.102 E0.03794
G1 X115.751 Y120.514 E0.03816
G1 X115.214 Y120.181 E0.01979
G1 X114.236 Y119.504 E0.03729
G1 X113.758 Y119.137 E0.01892
G1 X112.833 Y118.348 E0.03811
G1 X111.962 Y117.500 E0.03811
G1 X111.551 Y117.056 E0.01897
G1 X111.155 Y116.599 E0.01897
G1 X110.406 Y115.641 E0.03811
G1 X109.724 Y114.636 E0.03811
G1 X109.410 Y114.120 E0.01892
G1 X108.831 Y113.050 E0.03816
G1 X108.572 Y112.505 E0.01892
G1 X108.104 Y111.382 E0.03816
G1 X107.899 Y110.812 E0.01897
G1 X107.707 Y110.209 E0.01985
G1 X107.401 Y109.062 E0.03723
G1 X107.164 Y107.843 E0.03893
G1 X107.016 Y106.665 E0.03723
G1 X106.944 Y105.457 E0.03794
G1 X106.955 Y104.240 E0.03816
G1 X106.993 Y103.610 E0.01979
G1 X107.123 Y102.429 E0.03723
G1 X107.336 Y101.233 E0.03811
G1 X107.472 Y100.645 E0.01892
G1 X107.805 Y99.474 E0.03816
G1 X107.999 Y98.903 E0.01891
G1 X108.459 Y97.748 E0.03898
G1 X108.971 Y96.677 E0.03723
G1 X109.258 Y96.146 E0.01892
G1 X109.890 Y95.106 E0.03816
G1 X110.228 Y94.607 E0.01892
G1 X110.884 Y93.739 E0.03410
G1 X111.316 Y93.750 F10800.000
G1 F8640
G1 X111.349 Y93.173 E-0.16919
G1 X112.177 Y92.280 E-0.28103
G1 X112.609 Y91.859 E-0.13931
G1 X113.163 Y91.371 E-0.17046
G1 E-0.04000 F2100.00000
G1 Z0.800 F10800.000
G1 X108.814 Y111.813
G1 Z0.200
G1 E0.80000 F2100.00000
G1 F1200
G1 X117.864 Y120.863 E0.40244
G1 X118.169 Y121.005 E0.01057
G1 X118.777 Y121.241 E0.02050
G1 X108.748 Y111.212 E0.44600
G1 X108.455 Y110.385 E0.02758
G1 X119.607 Y121.537 E0.49594
G1 X120.385 Y121.779 E0.02561
G1 X108.235 Y109.630 E0.54030
G1 X108.042 Y108.902 E0.02367
G1 X121.094 Y121.954 E0.58041
G1 X121.766 Y122.091 E0.02158
G1 X107.913 Y108.238 E0.61605
G1 X107.797 Y107.587 E0.02080
G1 X122.411 Y122.201 E0.64990
G1 X123.029 Y122.285 E0.01962
G1 X107.720 Y106.975 E0.68084
G1 X107.660 Y106.380 E0.01881
G1 X123.619 Y122.339 E0.70971
G1 X124.192 Y122.377 E0.01807
G1 X107.626 Y105.812 E0.73670
G1 X107.606 Y105.257 E0.01746
G1 X124.748 Y122.399 E0.76232
G1 X125.277 Y122.393 E0.01665
G1 X107.610 Y104.726 E0.78566
G1 X107.618 Y104.199 E0.01658
G1 X125.795 Y122.376 E0.80833
G1 X126.306 Y122.352 E0.01609
G1 X107.649 Y103.695 E0.82971
G1 X107.700 Y103.212 E0.01528
G1 X126.797 Y122.308 E0.84924
G1 X127.268 Y122.244 E0.01495
G1 X107.753 Y102.730 E0.86783
G1 X107.822 Y102.264 E0.01481
G1 X127.739 Y122.181 E0.88571
G1 X128.197 Y122.104 E0.01461
G1 X107.903 Y101.810 E0.90250
G1 X107.985 Y101.357 E0.01449
G1 X128.641 Y122.013 E0.91861
G1 X129.072 Y121.909 E0.01395
G1 X108.085 Y100.922 E0.93333
G1 X108.199 Y100.501 E0.01372
G1 X129.504 Y121.806 E0.94746
G1 X129.918 Y121.685 E0.01357
G1 X108.317 Y100.085 E0.96061
G1 X108.436 Y99.668 E0.01361
G1 X130.326 Y121.558 E0.97347
G1 X130.733 Y121.431 E0.01343
G1 X108.571 Y99.269 E0.98556
G1 X108.718 Y98.881 E0.01305
G1 X131.119 Y121.282 E0.99620
G1 X131.505 Y121.133 E0.01300
G1 X108.870 Y98.498 E1.00657
G1 X109.023 Y98.116 E0.01295
G1 X131.887 Y120.980 E1.01680
G1 X132.252 Y120.810 E0.01265
G1 X109.190 Y97.749 E1.02557
G1 X109.363 Y97.387 E0.01261
G1 X132.616 Y120.640 E1.03410
M73 Q4 S21
M73 P4 R21
G1 X132.976 Y120.464 E0.01258
G1 X109.536 Y97.025 E1.04239
G1 X109.721 Y96.675 E0.01244
G1 X133.320 Y120.274 E1.04946
G1 X133.665 Y120.084 E0.01238
G1 X109.915 Y96.334 E1.05618
G1 X110.117 Y96.002 E0.01224
G1 X134.004 Y119.889 E1.06228
G1 X134.330 Y119.680 E0.01217
G1 X110.319 Y95.669 E1.06777
G1 X110.527 Y95.342 E0.01219
G1 X134.655 Y119.470 E1.07302
G1 X134.976 Y119.256 E0.01213
G1 X110.743 Y95.023 E1.07768
G1 X110.972 Y94.717 E0.01202
G1 X135.283 Y119.029 E1.08116
G1 X135.590 Y118.801 E0.01202
G1 X111.202 Y94.412 E1.08458
G1 X111.432 Y94.108 E0.01201
G1 X135.894 Y118.569 E1.08782
G1 X136.182 Y118.323 E0.01193
G1 X111.673 Y93.814 E1.08995
G1 X111.921 Y93.527 E0.01192
G1 X136.471 Y118.077 E1.09177
G1 X136.758 Y117.829 E0.01192
G1 X112.178 Y93.249 E1.09308
G1 X112.436 Y92.972 E0.01190
G1 X137.029 Y117.565 E1.09368
G1 X137.299 Y117.301 E0.01189
G1 X112.695 Y92.696 E1.09417
G1 X112.966 Y92.432 E0.01189
G1 X137.570 Y117.037 E1.09417
G1 X137.827 Y116.759 E0.01190
G1 X113.246 Y92.177 E1.09317
G1 X113.530 Y91.927 E0.01192
G1 X138.078 Y116.475 E1.09167
G1 X138.322 Y116.184 E0.01194
G1 X113.814 Y91.676 E1.08987
G1 X114.108 Y91.436 E0.01195
G1 X138.566 Y115.893 E1.08764
G1 X138.801 Y115.594 E0.01198
G1 X114.411 Y91.203 E1.08466
G1 X114.713 Y90.971 E0.01199
G1 X139.027 Y115.285 E1.08126
G1 X139.253 Y114.976 E0.01204
G1 X115.025 Y90.748 E1.07744
G1 X115.346 Y90.534 E0.01213
G1 X139.472 Y114.660 E1.07290
G1 X139.679 Y114.332 E0.01219
G1 X115.667 Y90.320 E1.06783
G1 X115.994 Y90.112 E0.01219
G1 X139.886 Y114.004 E1.06249
G1 X140.086 Y113.670 E0.01226
G1 X116.329 Y89.912 E1.05650
G1 X116.678 Y89.727 E0.01244
G1 X140.274 Y113.322 E1.04932
G1 X140.462 Y112.975 E0.01241
G1 X117.028 Y89.542 E1.04213
G1 X117.377 Y89.356 E0.01244
G1 X140.643 Y112.622 E1.03466
G1 X140.816 Y112.261 E0.01261
G1 X117.742 Y89.186 E1.02615
G1 X117.899 Y89.113 E0.00544
G1 X118.115 Y89.025 E0.00736
G1 X140.975 Y111.884 E1.01659
G1 X141.132 Y111.507 E0.01286
G1 X118.495 Y88.870 E1.00669
G1 X118.876 Y88.715 E0.01291
G1 X141.288 Y111.127 E0.99668
G1 X141.424 Y110.728 E0.01325
G1 X119.267 Y88.572 E0.98533
M73 Q9 S20
M73 P9 R20
G1 X119.669 Y88.439 E0.01331
G1 X141.560 Y110.330 E0.97350
G1 X141.689 Y109.924 E0.01339
G1 X120.082 Y88.318 E0.96086
G1 X120.496 Y88.196 E0.01355
G1 X141.801 Y109.502 E0.94748
G1 X141.914 Y109.079 E0.01374
G1 X120.920 Y88.086 E0.93361
G1 X121.356 Y87.987 E0.01407
G1 X142.011 Y108.642 E0.91854
G1 X142.099 Y108.195 E0.01433
G1 X121.807 Y87.903 E0.90238
G1 X122.258 Y87.819 E0.01442
G1 X142.185 Y107.746 E0.88619
G1 X142.245 Y107.272 E0.01505
G1 X122.723 Y87.749 E0.86818
G1 X123.206 Y87.697 E0.01526
G1 X142.306 Y106.797 E0.84939
G1 X142.347 Y106.304 E0.01556
G1 X123.699 Y87.656 E0.82931
G1 X124.197 Y87.619 E0.01570
G1 X142.377 Y105.799 E0.80849
G1 X142.397 Y105.284 E0.01620
G1 X124.723 Y87.610 E0.78596
G1 X125.250 Y87.602 E0.01656
G1 X142.393 Y104.745 E0.76235
G1 X142.384 Y104.201 E0.01709
G1 X125.808 Y87.626 E0.73713
G1 X126.372 Y87.654 E0.01774
G1 X142.348 Y103.630 E0.71047
G1 X142.282 Y103.030 E0.01900
G1 X126.971 Y87.719 E0.68089
G1 X127.578 Y87.791 E0.01920
G1 X142.211 Y102.424 E0.65075
G1 X142.097 Y101.775 E0.02070
G1 X128.232 Y87.910 E0.61660
G1 X128.898 Y88.041 E0.02134
G1 X141.953 Y101.096 E0.58057
G1 X141.768 Y100.377 E0.02336
G1 X129.621 Y88.229 E0.54020
G1 X130.378 Y88.452 E0.02483
G1 X141.551 Y99.624 E0.49684
G1 X141.252 Y98.791 E0.02784
G1 X131.215 Y88.754 E0.44635
G1 X131.564 Y88.882 E0.01169
G1 X132.132 Y89.136 E0.01956
G1 X141.193 Y98.197 E0.40295
G1 F8640
G1 X138.866 Y95.870 E-0.76000
G1 E-0.04000 F2100.00000
G1 Z0.800 F10800.000
G1 X140.759 Y97.228
G1 Z0.200
G1 E0.80000 F2100.00000
G1 F1200
G1 X132.774 Y89.243 E0.35510
G1 F8640
G1 X135.102 Y91.571 E-0.76000
