; generated by PrusaSlicer 2.1.1+win64 on 2020-01-25 at 06:26:19 UTC

; 

; external perimeters extrusion width = 0.45mm
; perimeters extrusion width = 0.45mm
; infill extrusion width = 0.45mm
; solid infill extrusion width = 0.45mm
; top infill extrusion width = 0.40mm
; first layer extrusion width = 0.42mm

M73 P0 R25
M73 Q0 S25
M201 X1000 Y1000 Z1000 E5000 ; sets maximum accelerations, mm/sec^2
M203 X200 Y200 Z12 E120 ; sets maximum feedrates, mm/sec
M204 P1250 R1250 T1250 ; sets acceleration (P, T) and retract acceleration (R), mm/sec^2
M205 X8.00 Y8.00 Z0.40 E1.50 ; sets the jerk limits, mm/sec
M205 S0 T0 ; sets the minimum extruding and travel feed rate, mm/sec
M107
M862.3 P "MK3S" ; printer model check
M862.1 P0.4 ; nozzle diameter check
M115 U3.8.1 ; tell printer latest fw version
G90 ; use absolute coordinates
M83 ; extruder relative mode
M104 S215 ; set extruder temp
M140 S60 ; set bed temp
M190 S60 ; wait for bed temp
M109 S215 ; wait for extruder temp
G28 W ; home all without mesh bed level
G80 ; mesh bed leveling
G1 Y-3.0 F1000.0 ; go outside print area
G92 E0.0
G1 X60.0 E9.0 F1000.0 ; intro line
M73 Q0 S25
M73 P0 R25
G1 X100.0 E12.5 F1000.0 ; intro line
G92 E0.0
M221 S95
G21 ; set units to millimeters
G90 ; use absolute coordinates
M83 ; use relative distances for extrusion
M900 K30 ; Filament gcode
;BEFORE_LAYER_CHANGE
G92 E0.0
;0.2


G1 E-0.80000 F2100.00000
G1 Z0.600 F10800.000
;AFTER_LAYER_CHANGE
;0.2
G1 X108.692 Y91.615
G1 Z0.200
G1 E0.80000 F2100.00000
M204 S1000
G1 F1200
G1 X110.082 Y90.081 E0.06492
G1 X111.616 Y88.690 E0.06492
G1 X113.279 Y87.457 E0.06492
G1 X115.055 Y86.392 E0.06492
G1 X116.927 Y85.507 E0.06492
G1 X118.877 Y84.810 E0.06492
G1 X120.885 Y84.307 E0.06492
G1 X122.933 Y84.003 E0.06492
G1 X125.005 Y83.902 E0.06503
G1 X127.069 Y84.003 E0.06480
G1 X129.117 Y84.307 E0.06492
G1 X131.126 Y84.811 E0.06492
G1 X133.075 Y85.508 E0.06492
G1 X134.947 Y86.394 E0.06492
G1 X136.722 Y87.458 E0.06492
G1 X138.385 Y88.692 E0.06492
G1 X139.919 Y90.082 E0.06492
G1 X141.310 Y91.616 E0.06492
G1 X142.543 Y93.279 E0.06492
G1 X143.608 Y95.055 E0.06492
G1 X144.493 Y96.927 E0.06492
G1 X145.190 Y98.877 E0.06492
G1 X145.693 Y100.885 E0.06492
G1 X145.997 Y102.933 E0.06492
G1 X146.098 Y105.001 E0.06492
G1 X145.997 Y107.069 E0.06492
G1 X145.693 Y109.117 E0.06492
G1 X145.189 Y111.126 E0.06492
G1 X144.492 Y113.075 E0.06492
G1 X143.606 Y114.947 E0.06492
G1 X142.542 Y116.722 E0.06492
G1 X141.308 Y118.385 E0.06492
G1 X139.918 Y119.919 E0.06492
G1 X138.384 Y121.310 E0.06492
G1 X136.721 Y122.543 E0.06492
G1 X134.945 Y123.608 E0.06492
G1 X133.073 Y124.493 E0.06492
G1 X131.123 Y125.190 E0.06492
G1 X129.115 Y125.693 E0.06492
G1 X127.067 Y125.997 E0.06492
G1 X124.999 Y126.098 E0.06492
G1 X122.931 Y125.997 E0.06492
G1 X120.883 Y125.693 E0.06492
G1 X118.874 Y125.189 E0.06492
G1 X116.925 Y124.492 E0.06492
G1 X115.053 Y123.606 E0.06492
G1 X113.278 Y122.542 E0.06492
G1 X111.615 Y121.308 E0.06492
G1 X110.081 Y119.918 E0.06492
G1 X108.690 Y118.384 E0.06492
G1 X107.457 Y116.721 E0.06492
G1 X106.392 Y114.945 E0.06492
G1 X105.507 Y113.073 E0.06492
G1 X104.810 Y111.123 E0.06492
G1 X104.307 Y109.115 E0.06492
G1 X104.003 Y107.067 E0.06492
G1 X103.902 Y104.999 E0.06492
G1 X104.003 Y102.931 E0.06492
G1 X104.307 Y100.883 E0.06492
G1 X104.811 Y98.874 E0.06492
G1 X105.508 Y96.925 E0.06492
G1 X106.394 Y95.053 E0.06492
G1 X107.458 Y93.278 E0.06492
G1 X108.656 Y91.663 E0.06304
G1 F8640
G1 X110.082 Y90.081 E-0.49187
G1 X110.943 Y89.301 E-0.26813
G1 E-0.04000 F2100.00000
G1 Z0.800 F10800.000
G1 X122.482 Y113.480
G1 Z0.200
G1 E0.80000 F2100.00000
G1 F1200
G1 X122.854 Y113.279 E0.01326
G1 X123.242 Y113.111 E0.01326
G1 X123.643 Y112.977 E0.01326
G1 X124.057 Y112.877 E0.01334
G1 X124.894 Y112.787 E0.02641
G1 X125.317 Y112.796 E0.01326
G1 X125.737 Y112.842 E0.01326
G1 X126.152 Y112.923 E0.01326
G1 X126.559 Y113.040 E0.01326
G1 X126.954 Y113.191 E0.01326
G1 X127.334 Y113.376 E0.01326
G1 X127.697 Y113.592 E0.01326
G1 X128.040 Y113.839 E0.01326
G1 X128.361 Y114.115 E0.01326
G1 X128.657 Y114.417 E0.01326
G1 X128.925 Y114.744 E0.01326
G1 X129.165 Y115.092 E0.01326
G1 X129.374 Y115.460 E0.01326
G1 X129.550 Y115.844 E0.01326
G1 X129.693 Y116.242 E0.01326
G1 X129.801 Y116.651 E0.01326
G1 X129.873 Y117.067 E0.01326
G1 X129.909 Y117.489 E0.01326
G1 X129.909 Y117.911 E0.01326
G1 X129.873 Y118.333 E0.01326
G1 X129.801 Y118.749 E0.01326
G1 X129.693 Y119.158 E0.01326
G1 X129.549 Y119.559 E0.01334
G1 X129.165 Y120.308 E0.02641
G1 X128.925 Y120.656 E0.01326
G1 X128.657 Y120.983 E0.01326
G1 X128.361 Y121.285 E0.01326
G1 X128.040 Y121.561 E0.01326
G1 X127.697 Y121.808 E0.01326
G1 X127.334 Y122.024 E0.01326
G1 X126.951 Y122.210 E0.01334
G1 X126.152 Y122.477 E0.02641
G1 X125.737 Y122.558 E0.01326
G1 X125.317 Y122.604 E0.01326
G1 X124.894 Y122.613 E0.01326
G1 X124.472 Y122.586 E0.01326
G1 X124.052 Y122.522 E0.01334
G1 X123.242 Y122.289 E0.02641
G1 X122.854 Y122.121 E0.01326
G1 X122.482 Y121.920 E0.01326
G1 X122.129 Y121.688 E0.01326
G1 X121.797 Y121.426 E0.01326
G1 X121.488 Y121.137 E0.01326
G1 X121.206 Y120.823 E0.01326
G1 X120.950 Y120.483 E0.01334
G1 X120.534 Y119.750 E0.02641
G1 X120.374 Y119.359 E0.01326
G1 X120.249 Y118.955 E0.01326
G1 X120.159 Y118.542 E0.01326
G1 X120.104 Y118.122 E0.01326
G1 X120.086 Y117.700 E0.01326
G1 X120.104 Y117.278 E0.01326
G1 X120.159 Y116.856 E0.01334
G1 X120.374 Y116.041 E0.02641
G1 X120.534 Y115.650 E0.01326
G1 X120.727 Y115.274 E0.01326
G1 X120.951 Y114.915 E0.01326
G1 X121.207 Y114.575 E0.01334
G1 X121.611 Y114.148 E0.01844
G1 X121.797 Y113.974 E0.00798
G1 X122.129 Y113.712 E0.01326
G1 X122.432 Y113.513 E0.01138
G1 X122.476 Y113.080 F10800.000
G1 F8640
G1 X122.854 Y113.279 E-0.11144
G1 X123.242 Y113.111 E-0.09763
G1 X123.643 Y112.977 E-0.09763
G1 X124.057 Y112.877 E-0.09824
G1 X124.894 Y112.787 E-0.19448
G1 X125.317 Y112.796 E-0.09763
G1 X125.588 Y112.826 E-0.06295
G1 E-0.04000 F2100.00000
G1 Z0.800 F10800.000
G1 X123.781 Y122.840
G1 Z0.200
G1 E0.80000 F2100.00000
G1 F1200
G1 X123.247 Y122.800 E0.01681
G1 X122.376 Y122.693 E0.02753
G1 X121.511 Y122.543 E0.02753
G1 X120.654 Y122.350 E0.02753
G1 X119.808 Y122.116 E0.02753
G1 X118.974 Y121.841 E0.02753
G1 X118.155 Y121.525 E0.02753
G1 X117.353 Y121.169 E0.02753
G1 X116.568 Y120.774 E0.02753
G1 X115.805 Y120.342 E0.02753
G1 X115.063 Y119.872 E0.02753
G1 X114.345 Y119.367 E0.02753
G1 X113.653 Y118.826 E0.02753
G1 X112.988 Y118.253 E0.02753
G1 X112.352 Y117.648 E0.02753
G1 X111.747 Y117.012 E0.02753
G1 X111.174 Y116.347 E0.02753
G1 X110.633 Y115.655 E0.02753
G1 X110.128 Y114.937 E0.02753
G1 X109.658 Y114.195 E0.02753
G1 X109.226 Y113.432 E0.02753
G1 X108.831 Y112.647 E0.02753
G1 X108.475 Y111.845 E0.02753
G1 X108.159 Y111.026 E0.02753
G1 X107.884 Y110.192 E0.02753
G1 X107.650 Y109.346 E0.02753
G1 X107.457 Y108.489 E0.02753
G1 X107.307 Y107.624 E0.02753
G1 X107.200 Y106.753 E0.02753
G1 X107.135 Y105.878 E0.02753
G1 X107.114 Y105.000 E0.02753
G1 X107.135 Y104.122 E0.02753
G1 X107.200 Y103.247 E0.02753
G1 X107.307 Y102.376 E0.02753
G1 X107.457 Y101.511 E0.02753
G1 X107.650 Y100.654 E0.02753
G1 X107.884 Y99.808 E0.02753
G1 X108.159 Y98.974 E0.02753
G1 X108.475 Y98.155 E0.02753
G1 X108.831 Y97.353 E0.02753
G1 X109.226 Y96.568 E0.02753
G1 X109.658 Y95.805 E0.02753
G1 X110.128 Y95.063 E0.02753
G1 X110.633 Y94.345 E0.02753
G1 X111.174 Y93.653 E0.02753
G1 X111.747 Y92.988 E0.02753
G1 X112.352 Y92.352 E0.02753
G1 X112.988 Y91.747 E0.02753
G1 X113.653 Y91.174 E0.02753
G1 X114.345 Y90.633 E0.02753
G1 X115.063 Y90.128 E0.02753
G1 X115.805 Y89.658 E0.02753
G1 X116.568 Y89.226 E0.02753
G1 X117.353 Y88.831 E0.02753
G1 X118.155 Y88.475 E0.02753
G1 X118.974 Y88.159 E0.02753
G1 X119.808 Y87.884 E0.02753
G1 X120.654 Y87.650 E0.02753
G1 X121.511 Y87.457 E0.02753
G1 X122.376 Y87.307 E0.02753
G1 X123.247 Y87.200 E0.02753
G1 X124.122 Y87.135 E0.02753
G1 X125.000 Y87.114 E0.02753
G1 X125.878 Y87.135 E0.02753
G1 X126.753 Y87.200 E0.02753
G1 X127.624 Y87.307 E0.02753
G1 X128.489 Y87.457 E0.02753
G1 X129.346 Y87.650 E0.02753
G1 X130.192 Y87.884 E0.02753
G1 X131.026 Y88.159 E0.02753
G1 X131.845 Y88.475 E0.02753
G1 X132.647 Y88.831 E0.02753
G1 X133.432 Y89.226 E0.02753
G1 X134.195 Y89.658 E0.02753
G1 X134.937 Y90.128 E0.02753
G1 X135.655 Y90.633 E0.02753
G1 X136.347 Y91.174 E0.02753
G1 X137.012 Y91.747 E0.02753
G1 X137.648 Y92.352 E0.02753
G1 X138.253 Y92.988 E0.02753
G1 X138.826 Y93.653 E0.02753
G1 X139.367 Y94.345 E0.02753
G1 X139.872 Y95.063 E0.02753
G1 X140.342 Y95.805 E0.02753
G1 X140.774 Y96.568 E0.02753
G1 X141.169 Y97.353 E0.02753
G1 X141.525 Y98.155 E0.02753
G1 X141.841 Y98.974 E0.02753
G1 X142.116 Y99.808 E0.02753
G1 X142.350 Y100.654 E0.02753
G1 X142.543 Y101.511 E0.02753
G1 X142.693 Y102.376 E0.02753
G1 X142.800 Y103.247 E0.02753
G1 X142.865 Y104.122 E0.02753
G1 X142.886 Y105.000 E0.02753
G1 X142.865 Y105.878 E0.02753
G1 X142.800 Y106.753 E0.02753
G1 X142.693 Y107.624 E0.02753
G1 X142.543 Y108.489 E0.02753
G1 X142.350 Y109.346 E0.02753
G1 X142.116 Y110.192 E0.02753
G1 X141.841 Y111.026 E0.02753
G1 X141.525 Y111.845 E0.02753
G1 X141.169 Y112.647 E0.02753
G1 X140.774 Y113.432 E0.02753
G1 X140.342 Y114.195 E0.02753
G1 X139.872 Y114.937 E0.02753
G1 X139.367 Y115.655 E0.02753
G1 X138.826 Y116.347 E0.02753
G1 X138.253 Y117.012 E0.02753
G1 X137.648 Y117.648 E0.02753
G1 X137.012 Y118.253 E0.02753
G1 X136.347 Y118.826 E0.02753
G1 X135.655 Y119.367 E0.02753
G1 X134.937 Y119.872 E0.02753
G1 X134.195 Y120.342 E0.02753
G1 X133.432 Y120.774 E0.02753
G1 X132.647 Y121.169 E0.02753
G1 X131.845 Y121.525 E0.02753
G1 X131.026 Y121.841 E0.02753
G1 X130.192 Y122.116 E0.02753
G1 X129.346 Y122.350 E0.02753
G1 X128.489 Y122.543 E0.02753
G1 X127.624 Y122.693 E0.02753
G1 X126.753 Y122.800 E0.02753
G1 X126.268 Y122.836 E0.01526
G1 X127.097 Y122.559 E0.02741
G1 X127.513 Y122.357 E0.01451
G1 X127.904 Y122.123 E0.01428
G1 X128.274 Y121.857 E0.01428
G1 X128.619 Y121.560 E0.01428
G1 X128.937 Y121.235 E0.01428
G1 X129.227 Y120.883 E0.01428
G1 X129.485 Y120.508 E0.01428
G1 X129.624 Y120.263 E0.00885
G1 X129.897 Y119.706 E0.01946
G1 X130.053 Y119.270 E0.01451
G1 X130.169 Y118.830 E0.01428
G1 X130.247 Y118.381 E0.01428
G1 X130.287 Y117.928 E0.01428
G1 X130.287 Y117.472 E0.01428
G1 X130.247 Y117.019 E0.01428
G1 X130.169 Y116.570 E0.01428
G1 X130.053 Y116.130 E0.01428
G1 X129.899 Y115.701 E0.01428
G1 X129.710 Y115.288 E0.01428
G1 X129.485 Y114.892 E0.01428
G1 X129.227 Y114.517 E0.01428
G1 X128.937 Y114.165 E0.01428
G1 X128.619 Y113.840 E0.01428
G1 X128.274 Y113.543 E0.01428
G1 X127.904 Y113.277 E0.01428
G1 X127.513 Y113.043 E0.01428
G1 X127.104 Y112.845 E0.01428
G1 X126.678 Y112.682 E0.01428
G1 X126.241 Y112.556 E0.01428
G1 X125.794 Y112.468 E0.01428
G1 X125.341 Y112.420 E0.01428
G1 X124.886 Y112.410 E0.01428
G1 X123.989 Y112.506 E0.02830
G1 X123.539 Y112.614 E0.01451
G1 X123.107 Y112.759 E0.01428
G1 X122.689 Y112.940 E0.01428
G1 X122.289 Y113.156 E0.01428
G1 X121.908 Y113.406 E0.01428
G1 X121.551 Y113.687 E0.01428
G1 X120.919 Y114.332 E0.02830
G1 X120.640 Y114.701 E0.01451
G1 X120.399 Y115.087 E0.01428
G1 X120.191 Y115.492 E0.01428
G1 X120.019 Y115.914 E0.01428
G1 X119.935 Y116.184 E0.00885
G1 X119.788 Y116.786 E0.01946
G1 X119.728 Y117.245 E0.01451
G1 X119.709 Y117.700 E0.01428
G1 X119.728 Y118.155 E0.01428
G1 X119.787 Y118.606 E0.01428
G1 X119.884 Y119.051 E0.01428
G1 X120.019 Y119.486 E0.01428
G1 X120.191 Y119.908 E0.01428
G1 X120.320 Y120.159 E0.00885
G1 X120.636 Y120.693 E0.01946
G1 X120.914 Y121.062 E0.01451
G1 X121.218 Y121.401 E0.01428
G1 X121.551 Y121.713 E0.01428
G1 X121.908 Y121.994 E0.01428
G1 X122.289 Y122.244 E0.01428
G1 X122.689 Y122.460 E0.01428
G1 X123.107 Y122.641 E0.01428
G1 X123.724 Y122.824 E0.02016
G1 X123.695 Y123.211 F10800.000
G1 F1200
G1 X123.210 Y123.176 E0.01525
G1 X122.320 Y123.066 E0.02811
G1 X121.437 Y122.913 E0.02811
G1 X120.562 Y122.716 E0.02811
G1 X119.698 Y122.477 E0.02811
G1 X118.847 Y122.196 E0.02811
G1 X118.011 Y121.873 E0.02811
G1 X117.191 Y121.510 E0.02811
G1 X116.391 Y121.107 E0.02811
G1 X115.611 Y120.665 E0.02811
G1 X114.853 Y120.186 E0.02811
G1 X114.120 Y119.669 E0.02811
G1 X113.414 Y119.118 E0.02811
G1 X112.735 Y118.532 E0.02811
G1 X112.086 Y117.914 E0.02811
G1 X111.468 Y117.265 E0.02811
G1 X110.882 Y116.586 E0.02811
G1 X110.331 Y115.880 E0.02811
G1 X109.814 Y115.147 E0.02811
G1 X109.335 Y114.389 E0.02811
G1 X108.893 Y113.609 E0.02811
G1 X108.490 Y112.809 E0.02811
G1 X108.127 Y111.989 E0.02811
G1 X107.804 Y111.153 E0.02811
G1 X107.523 Y110.302 E0.02811
G1 X107.284 Y109.438 E0.02811
G1 X107.087 Y108.563 E0.02811
G1 X106.934 Y107.680 E0.02811
G1 X106.824 Y106.790 E0.02811
G1 X106.758 Y105.896 E0.02811
G1 X106.736 Y105.000 E0.02811
G1 X106.758 Y104.104 E0.02811
G1 X106.824 Y103.210 E0.02811
G1 X106.934 Y102.320 E0.02811
G1 X107.087 Y101.437 E0.02811
G1 X107.284 Y100.562 E0.02811
G1 X107.523 Y99.698 E0.02811
G1 X107.804 Y98.847 E0.02811
G1 X108.127 Y98.011 E0.02811
G1 X108.490 Y97.191 E0.02811
G1 X108.893 Y96.391 E0.02811
G1 X109.335 Y95.611 E0.02811
G1 X109.814 Y94.853 E0.02811
G1 X110.331 Y94.120 E0.02811
G1 X110.882 Y93.414 E0.02811
G1 X111.468 Y92.735 E0.02811
G1 X112.086 Y92.086 E0.02811
G1 X112.735 Y91.468 E0.02811
G1 X113.414 Y90.882 E0.02811
G1 X114.120 Y90.331 E0.02811
G1 X114.853 Y89.814 E0.02811
G1 X115.611 Y89.335 E0.02811
G1 X116.391 Y88.893 E0.02811
G1 X117.191 Y88.490 E0.02811
G1 X118.011 Y88.127 E0.02811
G1 X118.847 Y87.804 E0.02811
G1 X119.698 Y87.523 E0.02811
G1 X120.562 Y87.284 E0.02811
G1 X121.437 Y87.087 E0.02811
G1 X122.320 Y86.934 E0.02811
G1 X123.210 Y86.824 E0.02811
G1 X124.104 Y86.758 E0.02811
G1 X125.000 Y86.736 E0.02811
G1 X125.896 Y86.758 E0.02811
G1 X126.790 Y86.824 E0.02811
G1 X127.680 Y86.934 E0.02811
G1 X128.563 Y87.087 E0.02811
G1 X129.438 Y87.284 E0.02811
G1 X130.302 Y87.523 E0.02811
G1 X131.153 Y87.804 E0.02811
G1 X131.989 Y88.127 E0.02811
G1 X132.809 Y88.490 E0.02811
G1 X133.609 Y88.893 E0.02811
G1 X134.389 Y89.335 E0.02811
G1 X135.147 Y89.814 E0.02811
G1 X135.880 Y90.331 E0.02811
G1 X136.586 Y90.882 E0.02811
G1 X137.265 Y91.468 E0.02811
G1 X137.914 Y92.086 E0.02811
G1 X138.532 Y92.735 E0.02811
G1 X139.118 Y93.414 E0.02811
G1 X139.669 Y94.120 E0.02811
G1 X140.186 Y94.853 E0.02811
G1 X140.665 Y95.611 E0.02811
G1 X141.107 Y96.391 E0.02811
G1 X141.510 Y97.191 E0.02811
G1 X141.873 Y98.011 E0.02811
G1 X142.196 Y98.847 E0.02811
G1 X142.477 Y99.698 E0.02811
G1 X142.716 Y100.562 E0.02811
G1 X142.913 Y101.437 E0.02811
G1 X143.066 Y102.320 E0.02811
G1 X143.176 Y103.210 E0.02811
G1 X143.242 Y104.104 E0.02811
G1 X143.264 Y105.000 E0.02811
G1 X143.242 Y105.896 E0.02811
G1 X143.176 Y106.790 E0.02811
G1 X143.066 Y107.680 E0.02811
G1 X142.913 Y108.563 E0.02811
G1 X142.716 Y109.438 E0.02811
G1 X142.477 Y110.302 E0.02811
G1 X142.196 Y111.153 E0.02811
G1 X141.873 Y111.989 E0.02811
G1 X141.510 Y112.809 E0.02811
G1 X141.107 Y113.609 E0.02811
G1 X140.665 Y114.389 E0.02811
G1 X140.186 Y115.147 E0.02811
G1 X139.669 Y115.880 E0.02811
G1 X139.118 Y116.586 E0.02811
G1 X138.532 Y117.265 E0.02811
G1 X137.914 Y117.914 E0.02811
G1 X137.265 Y118.532 E0.02811
G1 X136.586 Y119.118 E0.02811
G1 X135.880 Y119.669 E0.02811
G1 X135.147 Y120.186 E0.02811
G1 X134.389 Y120.665 E0.02811
G1 X133.609 Y121.107 E0.02811
G1 X132.809 Y121.510 E0.02811
G1 X131.989 Y121.873 E0.02811
G1 X131.153 Y122.196 E0.02811
G1 X130.302 Y122.477 E0.02811
G1 X129.438 Y122.716 E0.02811
G1 X128.563 Y122.913 E0.02811
G1 X127.680 Y123.066 E0.02811
G1 X126.790 Y123.176 E0.02811
G1 X125.896 Y123.242 E0.02811
G1 X125.000 Y123.264 E0.02811
G1 X123.755 Y123.216 E0.03907
G1 X123.514 Y122.855 F10800.000
G1 X123.947 Y123.041
G1 F1200
G1 X124.130 Y122.890 E0.00544
G1 X124.881 Y122.937 E0.01723
G1 X125.344 Y122.929 E0.01059
G1 X125.796 Y122.899 E0.01180
G1 X126.081 Y122.862 E0.00794
G1 F8640
G1 X125.796 Y122.899 E-0.06639
G1 E-0.73361 F2100.00000
G1 Z0.800 F10800.000
G1 X127.750 Y122.459
G1 Z0.200
G1 E0.80000 F2100.00000
G1 F1200
G1 X127.849 Y122.422 E0.00076
G1 X127.949 Y122.385 E0.00107
G1 X128.339 Y122.233 E0.00557
G1 X129.160 Y122.276 F10800.000
G1 F1200
G1 X128.725 Y121.842 E0.01934
G1 X128.997 Y121.578 E0.01192
