; generated by PrusaSlicer 2.1.1+win64 on 2020-01-26 at 04:58:25 UTC

; 

; external perimeters extrusion width = 0.45mm
; perimeters extrusion width = 0.45mm
; infill extrusion width = 0.45mm
; solid infill extrusion width = 0.45mm
; top infill extrusion width = 0.40mm
; first layer extrusion width = 0.42mm

M73 P0 R28
M73 Q0 S28
M201 X1000 Y1000 Z1000 E5000 ; sets maximum accelerations, mm/sec^2
M203 X200 Y200 Z12 E120 ; sets maximum feedrates, mm/sec
M204 P1250 R1250 T1250 ; sets acceleration (P, T) and retract acceleration (R), mm/sec^2
M205 X8.00 Y8.00 Z0.40 E1.50 ; sets the jerk limits, mm/sec
M205 S0 T0 ; sets the minimum extruding and travel feed rate, mm/sec
M107
M862.3 P "MK3S" ; printer model check
M862.1 P0.4 ; nozzle diameter check
M115 U3.8.1 ; tell printer latest fw version
G90 ; use absolute coordinates
M83 ; extruder relative mode
M104 S215 ; set extruder temp
M140 S60 ; set bed temp
M190 S60 ; wait for bed temp
M109 S215 ; wait for extruder temp
G28 W ; home all without mesh bed level
G80 ; mesh bed leveling
G1 Y-3.0 F1000.0 ; go outside print area
G92 E0.0
G1 X60.0 E9.0 F1000.0 ; intro line
M73 Q0 S28
M73 P0 R28
G1 X100.0 E12.5 F1000.0 ; intro line
G92 E0.0
M221 S95
G21 ; set units to millimeters
G90 ; use absolute coordinates
M83 ; use relative distances for extrusion
M900 K30 ; Filament gcode
;BEFORE_LAYER_CHANGE
G92 E0.0
;0.2


G1 E-0.80000 F2100.00000
G1 Z0.600 F10800.000
;AFTER_LAYER_CHANGE
;0.2
G1 X108.668 Y91.718
G1 Z0.200
G1 E0.80000 F2100.00000
M204 S1000
G1 F1200
G1 X109.953 Y90.275 E0.06059
G1 X111.486 Y88.857 E0.06547
G1 X113.179 Y87.579 E0.06651
G1 X114.989 Y86.479 E0.06640
G1 X116.903 Y85.566 E0.06651
G1 X118.900 Y84.849 E0.06651
G1 X120.959 Y84.338 E0.06651
G1 X123.059 Y84.036 E0.06651
G1 X125.163 Y83.947 E0.06606
G1 X127.296 Y84.071 E0.06697
G1 X129.386 Y84.408 E0.06640
G1 X131.440 Y84.955 E0.06663
G1 X133.391 Y85.690 E0.06537
G1 X134.734 Y86.331 E0.04666
G1 X136.563 Y87.405 E0.06651
G1 X138.249 Y88.636 E0.06547
G1 X139.849 Y90.073 E0.06743
G1 X141.257 Y91.621 E0.06560
G1 X142.521 Y93.324 E0.06652
G1 X143.606 Y95.143 E0.06640
G1 X144.503 Y97.066 E0.06651
G1 X145.202 Y99.068 E0.06651
G1 X145.697 Y101.131 E0.06651
G1 X145.981 Y103.233 E0.06651
G1 X146.053 Y105.317 E0.06537
G1 X145.914 Y107.434 E0.06651
G1 X145.690 Y108.905 E0.04666
G1 X145.202 Y110.935 E0.06547
G1 X144.491 Y112.964 E0.06743
G1 X143.606 Y114.856 E0.06548
G1 X142.517 Y116.681 E0.06663
G1 X141.255 Y118.382 E0.06640
G1 X139.826 Y119.950 E0.06651
G1 X138.247 Y121.366 E0.06651
G1 X136.533 Y122.615 E0.06651
G1 X134.705 Y123.685 E0.06640
G1 X132.806 Y124.554 E0.06548
G1 X130.798 Y125.240 E0.06651
G1 X129.354 Y125.599 E0.04666
G1 X127.292 Y125.929 E0.06547
G1 X125.160 Y126.053 E0.06697
G1 X123.059 Y125.964 E0.06594
G1 X120.959 Y125.662 E0.06651
G1 X118.900 Y125.151 E0.06651
G1 X116.904 Y124.434 E0.06651
G1 X114.989 Y123.521 E0.06651
G1 X113.179 Y122.421 E0.06640
G1 X111.486 Y121.143 E0.06651
G1 X109.953 Y119.725 E0.06548
G1 X108.831 Y118.479 E0.05257
G1 X107.661 Y116.941 E0.06059
G1 X106.564 Y115.165 E0.06547
G1 X105.622 Y113.227 E0.06756
G1 X104.902 Y111.267 E0.06547
G1 X104.373 Y109.212 E0.06651
G1 X104.054 Y107.119 E0.06640
G1 X103.947 Y105.000 E0.06651
G1 X104.054 Y102.882 E0.06651
G1 X104.374 Y100.784 E0.06651
G1 X104.902 Y98.734 E0.06640
G1 X105.622 Y96.773 E0.06548
G1 X106.563 Y94.836 E0.06754
G1 X107.661 Y93.059 E0.06548
G1 X108.632 Y91.766 E0.05069
G1 F8640
G1 X109.953 Y90.275 E-0.46004
G1 X110.907 Y89.393 E-0.29996
G1 E-0.04000 F2100.00000
G1 Z0.800 F10800.000
G1 X121.480 Y114.282
G1 Z0.200
G1 E0.80000 F2100.00000
G1 F1200
G1 X121.907 Y113.892 E0.01813
G1 X122.143 Y113.711 E0.00931
G1 X122.630 Y113.404 E0.01803
G1 X122.893 Y113.269 E0.00930
G1 X123.347 Y113.082 E0.01538
G1 X123.710 Y112.966 E0.01194
G1 X124.277 Y112.847 E0.01818
G1 X124.853 Y112.795 E0.01813
G1 X125.150 Y112.795 E0.00931
G1 X125.726 Y112.847 E0.01813
G1 X126.295 Y112.966 E0.01823
G1 X126.846 Y113.153 E0.01823
G1 X127.370 Y113.402 E0.01821
G1 X127.789 Y113.664 E0.01548
G1 X128.095 Y113.891 E0.01194
G1 X128.522 Y114.282 E0.01816
G1 X128.846 Y114.654 E0.01548
G1 X129.072 Y114.960 E0.01194
G1 X129.365 Y115.457 E0.01808
G1 X129.493 Y115.725 E0.00931
G1 X129.694 Y116.264 E0.01803
G1 X129.772 Y116.550 E0.00931
G1 X129.874 Y117.120 E0.01813
G1 X129.909 Y117.700 E0.01823
G1 X129.874 Y118.277 E0.01813
G1 X129.830 Y118.571 E0.00931
G1 X129.695 Y119.133 E0.01811
G1 X129.525 Y119.596 E0.01548
G1 X129.366 Y119.942 E0.01194
G1 X129.073 Y120.439 E0.01808
G1 X128.900 Y120.680 E0.00931
G1 X128.522 Y121.118 E0.01813
G1 X128.096 Y121.508 E0.01813
G1 X127.859 Y121.689 E0.00931
G1 X127.373 Y121.996 E0.01803
G1 X127.109 Y122.131 E0.00931
G1 X126.573 Y122.349 E0.01813
G1 X126.012 Y122.502 E0.01823
G1 X125.440 Y122.587 E0.01813
G1 X125.144 Y122.605 E0.00931
G1 X124.566 Y122.588 E0.01813
G1 X123.991 Y122.502 E0.01823
G1 X123.433 Y122.350 E0.01813
G1 X123.154 Y122.246 E0.00931
G1 X122.633 Y121.998 E0.01811
G1 X122.214 Y121.736 E0.01548
G1 X121.908 Y121.509 E0.01194
G1 X121.480 Y121.118 E0.01818
G1 X121.101 Y120.678 E0.01823
G1 X120.776 Y120.196 E0.01821
G1 X120.549 Y119.758 E0.01548
G1 X120.402 Y119.410 E0.01184
G1 X120.307 Y119.130 E0.00926
G1 X120.172 Y118.569 E0.01811
G1 X120.111 Y118.079 E0.01548
G1 X120.094 Y117.701 E0.01184
G1 X120.103 Y117.406 E0.00926
G1 X120.172 Y116.832 E0.01813
G1 X120.307 Y116.270 E0.01813
G1 X120.403 Y115.988 E0.00931
G1 X120.635 Y115.460 E0.01811
G1 X120.884 Y115.033 E0.01548
G1 X121.102 Y114.721 E0.01194
G1 X121.441 Y114.327 E0.01630
G1 X121.374 Y113.896 F10800.000
G1 F8640
G1 X121.907 Y113.892 E-0.14729
G1 X122.143 Y113.711 E-0.06859
G1 X122.630 Y113.404 E-0.13281
G1 X122.893 Y113.269 E-0.06846
G1 X123.347 Y113.082 E-0.11327
G1 X123.710 Y112.966 E-0.08790
G1 X124.277 Y112.847 E-0.13386
G1 X124.310 Y112.844 E-0.00781
G1 E-0.04000 F2100.00000
G1 Z0.800 F10800.000
G1 X123.819 Y122.846
G1 Z0.200
G1 E0.80000 F2100.00000
G1 F1200
G1 X123.345 Y122.818 E0.01488
G1 X122.757 Y122.754 E0.01854
G1 X121.565 Y122.562 E0.03787
G1 X120.499 Y122.318 E0.03429
G1 X119.814 Y122.127 E0.02229
G1 X119.248 Y121.945 E0.01865
G1 X118.118 Y121.518 E0.03787
G1 X117.123 Y121.065 E0.03429
G1 X116.494 Y120.743 E0.02214
G1 X115.449 Y120.132 E0.03796
G1 X114.954 Y119.808 E0.01856
G1 X114.065 Y119.162 E0.03444
G1 X113.510 Y118.718 E0.02229
G1 X113.061 Y118.329 E0.01865
G1 X112.186 Y117.490 E0.03801
G1 X111.780 Y117.059 E0.01854
G1 X110.997 Y116.140 E0.03787
G1 X110.344 Y115.263 E0.03429
G1 X109.949 Y114.678 E0.02214
G1 X109.329 Y113.638 E0.03796
G1 X109.052 Y113.115 E0.01854
G1 X108.539 Y112.017 E0.03801
G1 X108.317 Y111.469 E0.01854
G1 X107.917 Y110.325 E0.03801
G1 X107.750 Y109.757 E0.01854
G1 X107.468 Y108.578 E0.03801
G1 X107.268 Y107.403 E0.03739
G1 X107.146 Y106.197 E0.03801
G1 X107.117 Y105.606 E0.01854
G1 X107.117 Y104.398 E0.03787
G1 X107.188 Y103.307 E0.03429
G1 X107.267 Y102.606 E0.02214
G1 X107.469 Y101.416 E0.03782
G1 X107.722 Y100.352 E0.03429
G1 X107.918 Y99.673 E0.02215
G1 X108.277 Y98.637 E0.03439
G1 X108.540 Y97.982 E0.02214
G1 X109.052 Y96.885 E0.03796
G1 X109.628 Y95.841 E0.03739
G1 X110.281 Y94.825 E0.03787
G1 X110.931 Y93.945 E0.03429
G1 X111.377 Y93.398 E0.02214
G1 X112.193 Y92.503 E0.03796
G1 X113.053 Y91.678 E0.03739
G1 X113.979 Y90.903 E0.03787
G1 X114.862 Y90.257 E0.03429
G1 X115.451 Y89.867 E0.02214
G1 X116.496 Y89.256 E0.03796
G1 X117.020 Y88.983 E0.01854
G1 X118.123 Y88.480 E0.03801
G1 X118.673 Y88.261 E0.01856
G1 X119.713 Y87.906 E0.03444
G1 X120.391 Y87.709 E0.02214
G1 X121.570 Y87.437 E0.03796
G1 X122.748 Y87.248 E0.03739
G1 X123.955 Y87.136 E0.03801
G1 X124.546 Y87.111 E0.01856
G1 X125.644 Y87.118 E0.03444
G1 X126.354 Y87.156 E0.02229
G1 X126.947 Y87.211 E0.01865
G1 X128.147 Y87.384 E0.03801
G1 X128.727 Y87.497 E0.01856
G1 X129.794 Y87.760 E0.03444
G1 X130.475 Y87.963 E0.02229
G1 X131.039 Y88.154 E0.01865
G1 X132.165 Y88.602 E0.03801
G1 X132.703 Y88.847 E0.01854
G1 X133.775 Y89.403 E0.03785
G1 X134.806 Y90.030 E0.03785
G1 X135.296 Y90.363 E0.01856
G1 X136.174 Y91.023 E0.03444
G1 X136.717 Y91.474 E0.02214
G1 X137.605 Y92.297 E0.03796
G1 X138.018 Y92.720 E0.01854
G1 X138.820 Y93.630 E0.03801
G1 X139.191 Y94.096 E0.01870
G1 X139.548 Y94.577 E0.01877
G1 X140.218 Y95.584 E0.03793
G1 X140.521 Y96.092 E0.01854
G1 X141.089 Y97.163 E0.03801
G1 X141.339 Y97.699 E0.01856
G1 X141.755 Y98.716 E0.03444
G1 X141.993 Y99.386 E0.02229
G1 X142.170 Y99.954 E0.01866
G1 X142.446 Y101.018 E0.03444
G1 X142.591 Y101.708 E0.02214
G1 X142.773 Y102.905 E0.03796
G1 X142.833 Y103.494 E0.01856
G1 X142.890 Y104.591 E0.03444
G1 X142.894 Y105.302 E0.02229
G1 X142.874 Y105.897 E0.01866
G1 X142.783 Y106.992 E0.03444
G1 X142.692 Y107.697 E0.02229
G1 X142.592 Y108.288 E0.01880
G1 X142.472 Y108.872 E0.01870
G1 X142.171 Y110.042 E0.03787
G1 X141.830 Y111.081 E0.03429
G1 X141.578 Y111.741 E0.02215
G1 X141.132 Y112.744 E0.03439
G1 X140.816 Y113.375 E0.02214
G1 X140.213 Y114.425 E0.03796
G1 X139.894 Y114.922 E0.01854
G1 X139.188 Y115.908 E0.03801
G1 X138.820 Y116.370 E0.01854
G1 X138.018 Y117.280 E0.03801
G1 X137.602 Y117.707 E0.01870
G1 X137.171 Y118.119 E0.01870
G1 X136.255 Y118.913 E0.03801
G1 X135.789 Y119.277 E0.01854
G1 X134.802 Y119.972 E0.03785
G1 X133.770 Y120.599 E0.03785
G1 X133.250 Y120.880 E0.01854
G1 X132.156 Y121.402 E0.03801
G1 X131.048 Y121.842 E0.03739
G1 X129.898 Y122.212 E0.03785
G1 X128.727 Y122.503 E0.03785
G1 X127.553 Y122.712 E0.03739
G1 X126.163 Y122.852 E0.04380
G1 X126.694 Y122.707 E0.01726
G1 X127.266 Y122.475 E0.01936
G1 X127.560 Y122.324 E0.01037
G1 X128.075 Y121.999 E0.01909
G1 X128.338 Y121.798 E0.01037
G1 X128.793 Y121.381 E0.01936
G1 X129.196 Y120.914 E0.01936
G1 X129.389 Y120.645 E0.01037
G1 X129.701 Y120.117 E0.01921
G1 X129.874 Y119.740 E0.01302
G1 X130.056 Y119.242 E0.01663
G1 X130.201 Y118.643 E0.01931
G1 X130.250 Y118.316 E0.01037
G1 X130.286 Y117.700 E0.01936
G1 X130.249 Y117.075 E0.01963
G1 X130.140 Y116.467 E0.01936
G1 X130.053 Y116.148 E0.01037
G1 X129.841 Y115.578 E0.01909
G1 X129.699 Y115.279 E0.01037
G1 X129.387 Y114.752 E0.01921
G1 X129.140 Y114.418 E0.01302
G1 X128.792 Y114.018 E0.01663
G1 X128.335 Y113.599 E0.01944
G1 X128.001 Y113.352 E0.01302
G1 X127.551 Y113.071 E0.01663
G1 X126.988 Y112.803 E0.01958
G1 X126.394 Y112.602 E0.01963
G1 X125.782 Y112.473 E0.01963
G1 X125.167 Y112.418 E0.01936
G1 X124.836 Y112.418 E0.01037
G1 X124.221 Y112.473 E0.01936
G1 X123.613 Y112.601 E0.01949
G1 X123.217 Y112.728 E0.01302
G1 X122.735 Y112.926 E0.01635
G1 X122.442 Y113.076 E0.01032
G1 X121.928 Y113.401 E0.01909
G1 X121.665 Y113.602 E0.01037
G1 X121.209 Y114.019 E0.01936
G1 X120.804 Y114.490 E0.01949
G1 X120.566 Y114.830 E0.01302
G1 X120.299 Y115.288 E0.01663
G1 X120.051 Y115.852 E0.01931
G1 X119.945 Y116.165 E0.01037
G1 X119.800 Y116.765 E0.01936
G1 X119.727 Y117.378 E0.01936
G1 X119.717 Y117.704 E0.01022
G1 X119.735 Y118.110 E0.01275
G1 X119.800 Y118.636 E0.01663
G1 X119.945 Y119.235 E0.01931
G1 X120.049 Y119.544 E0.01022
G1 X120.207 Y119.918 E0.01275
G1 X120.452 Y120.389 E0.01663
G1 X120.801 Y120.907 E0.01958
G1 X121.209 Y121.381 E0.01963
G1 X121.668 Y121.801 E0.01949
G1 X122.001 Y122.048 E0.01302
G1 X122.451 Y122.329 E0.01663
G1 X123.007 Y122.594 E0.01931
G1 X123.317 Y122.709 E0.01037
G1 X123.761 Y122.830 E0.01443
G1 X123.738 Y123.219 F10800.000
G1 F1200
G1 X123.314 Y123.194 E0.01334
G1 X122.707 Y123.127 E0.01914
G1 X121.493 Y122.932 E0.03855
G1 X120.406 Y122.683 E0.03495
G1 X119.706 Y122.488 E0.02280
G1 X119.124 Y122.301 E0.01918
G1 X117.973 Y121.866 E0.03855
G1 X116.959 Y121.405 E0.03495
G1 X116.313 Y121.074 E0.02274
G1 X115.251 Y120.453 E0.03859
G1 X114.740 Y120.119 E0.01914
G1 X113.837 Y119.462 E0.03501
G1 X113.269 Y119.008 E0.02280
G1 X112.807 Y118.607 E0.01918
G1 X111.918 Y117.755 E0.03860
G1 X111.499 Y117.311 E0.01914
G1 X110.702 Y116.375 E0.03855
G1 X110.036 Y115.481 E0.03495
G1 X109.631 Y114.880 E0.02274
G1 X109.000 Y113.823 E0.03859
G1 X108.715 Y113.283 E0.01914
G1 X108.194 Y112.168 E0.03860
G1 X107.964 Y111.602 E0.01914
G1 X107.558 Y110.440 E0.03860
G1 X107.386 Y109.854 E0.01914
G1 X107.099 Y108.657 E0.03860
G1 X106.894 Y107.450 E0.03838
G1 X106.770 Y106.225 E0.03860
G1 X106.740 Y105.616 E0.01914
G1 X106.740 Y104.386 E0.03855
G1 X106.813 Y103.274 E0.03495
G1 X106.894 Y102.553 E0.02274
G1 X107.099 Y101.341 E0.03854
G1 X107.357 Y100.257 E0.03495
G1 X107.558 Y99.559 E0.02275
G1 X107.924 Y98.505 E0.03499
G1 X108.194 Y97.832 E0.02274
G1 X108.715 Y96.717 E0.03859
G1 X109.306 Y95.645 E0.03838
G1 X109.971 Y94.610 E0.03855
G1 X110.633 Y93.714 E0.03495
G1 X111.091 Y93.152 E0.02274
G1 X111.920 Y92.242 E0.03859
G1 X112.804 Y91.395 E0.03838
G1 X113.747 Y90.606 E0.03855
G1 X114.646 Y89.947 E0.03495
G1 X115.251 Y89.547 E0.02274
G1 X116.313 Y88.925 E0.03859
G1 X116.855 Y88.644 E0.01914
G1 X117.975 Y88.133 E0.03860
G1 X118.543 Y87.907 E0.01914
G1 X119.599 Y87.546 E0.03501
G1 X120.296 Y87.344 E0.02274
G1 X121.495 Y87.068 E0.03859
G1 X122.703 Y86.873 E0.03838
G1 X123.929 Y86.759 E0.03860
G1 X124.539 Y86.734 E0.01914
G1 X125.656 Y86.741 E0.03501
G1 X126.382 Y86.780 E0.02280
G1 X126.991 Y86.837 E0.01918
G1 X128.210 Y87.012 E0.03860
G1 X128.809 Y87.129 E0.01914
G1 X129.893 Y87.396 E0.03501
G1 X130.590 Y87.603 E0.02280
G1 X131.169 Y87.800 E0.01918
G1 X132.313 Y88.255 E0.03860
G1 X132.868 Y88.508 E0.01914
G1 X133.960 Y89.075 E0.03855
G1 X135.010 Y89.713 E0.03855
G1 X135.515 Y90.056 E0.01914
G1 X136.408 Y90.727 E0.03501
G1 X136.966 Y91.190 E0.02274
G1 X137.869 Y92.027 E0.03859
G1 X138.295 Y92.464 E0.01914
G1 X139.109 Y93.387 E0.03860
G1 X139.490 Y93.866 E0.01919
G1 X139.856 Y94.360 E0.01927
G1 X140.538 Y95.382 E0.03853
G1 X140.850 Y95.907 E0.01914
G1 X141.426 Y96.995 E0.03860
G1 X141.685 Y97.548 E0.01914
G1 X142.107 Y98.581 E0.03501
G1 X142.351 Y99.267 E0.02280
G1 X142.533 Y99.851 E0.01918
G1 X142.813 Y100.931 E0.03501
G1 X142.962 Y101.641 E0.02274
G1 X143.147 Y102.858 E0.03859
G1 X143.209 Y103.465 E0.01914
G1 X143.267 Y104.580 E0.03501
G1 X143.271 Y105.308 E0.02280
G1 X143.250 Y105.919 E0.01918
G1 X143.159 Y107.032 E0.03501
G1 X143.065 Y107.753 E0.02280
G1 X142.840 Y108.957 E0.03842
G1 X142.533 Y110.148 E0.03855
G1 X142.185 Y111.207 E0.03495
G1 X141.927 Y111.885 E0.02275
G1 X141.473 Y112.905 E0.03499
G1 X141.148 Y113.553 E0.02274
G1 X140.536 Y114.621 E0.03859
G1 X140.206 Y115.134 E0.01914
G1 X139.489 Y116.135 E0.03860
G1 X139.109 Y116.613 E0.01914
G1 X138.295 Y117.536 E0.03860
G1 X137.425 Y118.398 E0.03838
G1 X136.495 Y119.204 E0.03860
G1 X136.014 Y119.580 E0.01914
G1 X135.009 Y120.288 E0.03855
G1 X133.958 Y120.926 E0.03855
G1 X133.421 Y121.217 E0.01914
G1 X132.310 Y121.747 E0.03860
G1 X131.172 Y122.199 E0.03838
G1 X130.002 Y122.575 E0.03855
G1 X128.809 Y122.871 E0.03855
G1 X127.603 Y123.086 E0.03838
G1 X126.381 Y123.220 E0.03855
G1 X125.153 Y123.271 E0.03855
G1 X124.543 Y123.266 E0.01914
G1 X123.798 Y123.223 E0.02338
G1 X123.556 Y122.863 F10800.000
G1 X124.006 Y122.871
G1 F1200
G1 X124.554 Y122.927 E0.01353
G1 X125.147 Y122.938 E0.01458
G1 X125.482 Y122.921 E0.00822
G1 X125.976 Y122.874 E0.01364
G1 F8640
G1 X125.482 Y122.921 E-0.11464
G1 E-0.68536 F2100.00000
G1 Z0.800 F10800.000
G1 X127.713 Y122.482
G1 Z0.200
G1 E0.80000 F2100.00000
G1 F1200
G1 X128.303 Y122.247 E0.01281
G1 X129.159 Y122.279 F10800.000
G1 F1200
G1 X128.716 Y121.835 E0.01975
G1 X128.995 Y121.580 E0.01194
G1 X129.448 Y122.032 E0.02016
G1 X129.874 Y121.922 E0.01385
G1 X129.244 Y121.292 E0.02808
G1 X129.484 Y120.997 E0.01199
G1 X130.279 Y121.792 E0.03541
G1 X130.685 Y121.662 E0.01341
G1 X129.699 Y120.676 E0.04390
G1 X129.898 Y120.340 E0.01231
G1 X131.083 Y121.524 E0.05276
G1 X131.466 Y121.372 E0.01299
G1 X130.075 Y119.981 E0.06196
G1 X130.227 Y119.598 E0.01298
G1 X131.849 Y121.220 E0.07224
G1 X132.222 Y121.057 E0.01281
G1 X130.359 Y119.194 E0.08300
G1 X130.463 Y118.762 E0.01397
G1 X132.585 Y120.884 E0.09450
G1 X132.948 Y120.711 E0.01265
G1 X130.534 Y118.298 E0.10749
G1 X130.564 Y117.792 E0.01595
G1 X133.302 Y120.531 E0.12195
G1 X133.649 Y120.342 E0.01243
G1 X130.542 Y117.235 E0.13838
G1 X130.530 Y117.041 E0.00609
G1 X130.453 Y116.610 E0.01381
